svgs/cult_fit.svg

<svg width="192" height="192" viewBox="0 0 192 192" fill="none" xmlns="http://www.w3.org/2000/svg">
<path d="M117 70.5C117 81.8218 108.046 91 97 91C85.9543 91 77 81.8218 77 70.5C77 59.1782 85.9543 50 97 50C108.046 50 117 59.1782 117 70.5Z" stroke="black" stroke-width="12" stroke-linejoin="round"/>
<path d="M130 83L155 65" stroke="black" stroke-width="12" stroke-linecap="round" stroke-linejoin="round"/>
<path d="M63 83L38 65" stroke="black" stroke-width="12" stroke-linecap="round" stroke-linejoin="round"/>
<path d="M63 125L38 142" stroke="black" stroke-width="12" stroke-linecap="round" stroke-linejoin="round"/>
<path d="M130 125L155 142" stroke="black" stroke-width="12" stroke-linecap="round" stroke-linejoin="round"/>
<path d="M28 105H165" stroke="black" stroke-width="12" stroke-linecap="round" stroke-linejoin="round"/>
<path d="M57 170L96.7452 122L137 170" stroke="black" stroke-width="12" stroke-linecap="round" stroke-linejoin="round"/>
<path d="M97 144.435V168M97 34.807V22" stroke="black" stroke-width="12" stroke-linecap="round" stroke-linejoin="round"/>
</svg>

<svg xmlns="http://www.w3.org/2000/svg" width="192" height="192" fill="none" viewBox="0 0 192 192"><path stroke="#000" stroke-linejoin="round" stroke-width="12" d="M117 70.5c0 11.322-8.954 20.5-20 20.5s-20-9.178-20-20.5S85.954 50 97 50s20 9.178 20 20.5Z"/><path stroke="#000" stroke-linecap="round" stroke-linejoin="round" stroke-width="12" d="m130 83 25-18M63 83 38 65m25 60-25 17m92-17 25 17M28 105h137M57 170l39.745-48L137 170m-40-25.565V168m0-133.193V22"/></svg>
